alpha-w-box-outline.svg

<svg fill="currentColor" viewBox="0 0 24 24"><path d="M9 17a2 2 0 0 1-2-2V7h2v8h2V8h2v7h2V7h2v8a2 2 0 0 1-2 2zM5 3h14a2 2 0 0 1 2 2v14a2 2 0 0 1-2 2H5a2 2 0 0 1-2-2V5a2 2 0 0 1 2-2m0 2v14h14V5z"/></svg>

<svg  viewBox="0 0 24 24" fill="currentColor"><path  d="M9,17A2,2 0 0,1 7,15V7H9V15H11V8H13V15H15V7H17V15A2,2 0 0,1 15,17H9M5,3H19A2,2 0 0,1 21,5V19A2,2 0 0,1 19,21H5A2,2 0 0,1 3,19V5A2,2 0 0,1 5,3M5,5V19H19V5H5Z"/></svg>
